components/Common/Svg/svgs/digit4.svg

<svg width="90" height="90" viewBox="0 0 90 90" fill="none" xmlns="http://www.w3.org/2000/svg">
<circle cx="45" cy="45" r="45" fill="#FFE603"/>
<path d="M35.1611 51.58V46.888L45.9051 31.52H52.3991V46.548H55.1871V51.58H52.3991V56H46.5851V51.58H35.1611ZM46.9931 37.912L41.2811 46.548H46.9931V37.912Z" fill="black"/>
</svg>

<svg width="90" height="90" viewBox="0 0 90 90" fill="none" xmlns="http://www.w3.org/2000/svg"><circle cx="45" cy="45" r="45" fill="#FFE603"/><path d="M35.161 51.58v-4.692L45.905 31.52H52.4v15.028h2.788v5.032H52.4V56h-5.814v-4.42H35.161Zm11.832-13.668-5.712 8.636h5.712v-8.636Z" fill="#000"/></svg>
